!!!OTL: Der Hammerschmiedssohn Es wollt ein Maedchen frueh aufstehn
!!!ARE: Europa, Suedosteuropa, Jugoslavija, Batschka, Vinkovci, Neudorf
!!!YOR: 4, S. 354
!!    1938 aufgezeichnet
!!!SCT: Q0088B
!!!YEM: Copyright 1995, estate of Helmut Schaffrath.
**kern
*ICvox
*Ivox
*M2/4
*k[b-]
*F:
{8c
=1
8c
8f
8f
8f
=2
8f
8a
8f}
{8a
=3
8.g
16f
8e
8d
=4
4c
8r}
{8c
=5
8c
8g
8g
8g
=6
8g
8a
8b-}
{8dd
=7
8.cc
16b-
8a
8g
=8
4f}
{4cc
=9
8.a
16cc
8cc
8cc
=10
8.a
16cc
4cc}
=11
{8.cc
16cc
8dd
8cc
=12
8.cc
16b-
8b-}
{8b-
=13
8g
8b-
8b-
8b-
=14
8g
8b-
8b-
8cc
=15
4a
8r}
==
!!!AGN: Ballade, Verfuehrung, Schwangerschaft, Mord
!! Jede zweite Zeile = Refrain z.T. auf sinnfreie Silben.
!!!ONB: ESAC (Essen Associative Code) Database: BALLADE
!!!AMT: simple duple
!!!AIN: vox
!!!EED: Helmut Schaffrath
!!!EEV: 1.0
*-
